src/icons/flags/bv.svg

<svg viewBox="0 0 640 480" xmlns="http://www.w3.org/2000/svg" xmlns:xlink="http://www.w3.org/1999/xlink">
  <clipPath id="a">
    <path d="m0 0h640v480h-640z"/>
  </clipPath>
  <g clip-path="url(#a)" fill-rule="evenodd" stroke-width="1pt">
    <path d="m-28 0h699.7v512h-699.7z" fill="#fff"/>
    <path d="m-53-77.8h218.7v276.2h-218.7zm342.4 77.2h381v199h-381zm-317 320.6h190.4v190.3h-190.4zm319.6 2.1h378.3v188.2h-378.3z" fill="#d72828"/>
    <g fill="#003897">
      <path d="m196.7-25.4h64.3v535.7h-64.5z"/>
      <path d="m-27.6 224.8h698v63.5h-698z"/>
    </g>
  </g>
</svg>

<svg xmlns="http://www.w3.org/2000/svg" id="flag-icons-bv" viewBox="0 0 640 480">
  <defs>
    <clipPath id="bv-a">
      <path fill-opacity=".7" d="M0 0h640v480H0z"/>
    </clipPath>
  </defs>
  <g fill-rule="evenodd" stroke-width="1pt" clip-path="url(#bv-a)">
    <path fill="#fff" d="M-28 0h699.7v512H-28z"/>
    <path fill="#d72828" d="M-53-77.8h218.7v276.2H-53zM289.4-.6h381v199h-381zM-27.6 320h190.4v190.3H-27.6zm319.6 2.1h378.3v188.2H292z"/>
    <path fill="#003897" d="M196.7-25.4H261v535.7h-64.5z"/>
    <path fill="#003897" d="M-27.6 224.8h698v63.5h-698z"/>
  </g>
</svg>
